public/icons/01d.svg

<svg width="240" height="240" viewBox="0 0 240 240" fill="none" xmlns="http://www.w3.org/2000/svg">
<path fill-rule="evenodd" clip-rule="evenodd" d="M120 207C168.049 207 207 168.049 207 120C207 71.9512 168.049 33 120 33C71.9512 33 33 71.9512 33 120C33 168.049 71.9512 207 120 207ZM210 120C210 169.706 169.706 210 120 210C70.2944 210 30 169.706 30 120C30 70.2944 70.2944 30 120 30C169.706 30 210 70.2944 210 120Z" fill="#FFF308" fill-opacity="0.2"/>
<path fill-rule="evenodd" clip-rule="evenodd" d="M119.5 195C161.198 195 195 161.198 195 119.5C195 77.8025 161.198 44 119.5 44C77.8025 44 44 77.8025 44 119.5C44 161.198 77.8025 195 119.5 195ZM199 119.5C199 163.407 163.407 199 119.5 199C75.5934 199 40 163.407 40 119.5C40 75.5934 75.5934 40 119.5 40C163.407 40 199 75.5934 199 119.5Z" fill="#FFF308" fill-opacity="0.6"/>
<path fill-rule="evenodd" clip-rule="evenodd" d="M119.5 187C156.779 187 187 156.779 187 119.5C187 82.2208 156.779 52 119.5 52C82.2208 52 52 82.2208 52 119.5C52 156.779 82.2208 187 119.5 187Z" fill="#FFEC65"/>
</svg>

<svg xmlns="http://www.w3.org/2000/svg" width="240" height="240" fill="none" fill-rule="evenodd" xmlns:v="https://vecta.io/nano"><g fill="#fff308"><path d="M120 207c48.049 0 87-38.951 87-87s-38.951-87-87-87-87 38.951-87 87 38.951 87 87 87zm90-87c0 49.706-40.294 90-90 90s-90-40.294-90-90 40.294-90 90-90 90 40.294 90 90z" fill-opacity=".2"/><path d="M119.5 195c41.698 0 75.5-33.802 75.5-75.5S161.198 44 119.5 44 44 77.803 44 119.5 77.803 195 119.5 195zm79.5-75.5c0 43.907-35.593 79.5-79.5 79.5S40 163.407 40 119.5 75.593 40 119.5 40 199 75.593 199 119.5z" fill-opacity=".6"/></g><path d="M119.5 187c37.279 0 67.5-30.221 67.5-67.5S156.779 52 119.5 52 52 82.221 52 119.5 82.221 187 119.5 187z" fill="#ffec65"/></svg>
